src/assets/outline/BatteryCharging.svg

<svg width="24" height="24" viewBox="0 0 24 24"  xmlns="http://www.w3.org/2000/svg">
<path d="M20.5 15.25C20.09 15.25 19.75 14.91 19.75 14.5C19.75 14.09 20.09 13.75 20.5 13.75C21.09 13.75 21.22 13.66 21.23 13.66C21.25 13.6 21.25 13.25 21.25 13V11C21.25 10.75 21.25 10.41 21.21 10.32C21.2 10.33 21.05 10.25 20.5 10.25C20.09 10.25 19.75 9.91 19.75 9.5C19.75 9.09 20.09 8.75 20.5 8.75C22.58 8.75 22.75 9.77 22.75 11V13C22.75 14.23 22.58 15.25 20.5 15.25Z" />
<path d="M9.99996 16.7503C9.82996 16.7503 9.64996 16.6903 9.50996 16.5703C9.19996 16.3003 9.15996 15.8303 9.42996 15.5103L11.51 13.0803C11.54 12.9903 11.51 12.9103 11.49 12.8703C11.46 12.8203 11.4 12.7503 11.27 12.7503H8.96996C8.33996 12.7503 7.76996 12.4203 7.44996 11.8803C7.12996 11.3403 7.12996 10.6803 7.44996 10.1303L9.39996 7.55027C9.64996 7.22027 10.12 7.15027 10.45 7.40027C10.78 7.65027 10.85 8.12027 10.6 8.45027L8.70996 10.9503C8.69996 10.9803 8.73996 11.0703 8.75996 11.1203C8.78996 11.1703 8.84996 11.2403 8.97996 11.2403H11.28C11.91 11.2403 12.48 11.5703 12.8 12.1103C13.12 12.6503 13.12 13.3103 12.8 13.8603C12.78 13.9003 12.75 13.9403 12.72 13.9703L10.58 16.4703C10.42 16.6603 10.21 16.7503 9.99996 16.7503Z" />
<path d="M7 19.75C2.59 19.75 1.25 18.41 1.25 14V10C1.25 5.59 2.59 4.25 7 4.25C7.41 4.25 7.75 4.59 7.75 5C7.75 5.41 7.41 5.75 7 5.75C3.43 5.75 2.75 6.43 2.75 10V14C2.75 17.57 3.43 18.25 7 18.25C7.41 18.25 7.75 18.59 7.75 19C7.75 19.41 7.41 19.75 7 19.75Z" />
<path d="M13 19.75C12.59 19.75 12.25 19.41 12.25 19C12.25 18.59 12.59 18.25 13 18.25C16.57 18.25 17.25 17.57 17.25 14V10C17.25 6.43 16.57 5.75 13 5.75C12.59 5.75 12.25 5.41 12.25 5C12.25 4.59 12.59 4.25 13 4.25C17.41 4.25 18.75 5.59 18.75 10V14C18.75 18.41 17.41 19.75 13 19.75Z" />
</svg>

<?xml version="1.0" encoding="UTF-8"?>
<svg width="24" height="24" viewBox="0 0 24 24" xmlns="http://www.w3.org/2000/svg">
 <path d="m20.5 15.25c-0.41 0-0.75-0.34-0.75-0.75s0.34-0.75 0.75-0.75c0.59 0 0.72-0.09 0.73-0.09 0.02-0.06 0.02-0.41 0.02-0.66v-2c0-0.25 0-0.59-0.04-0.68-0.01 0.01-0.16-0.07-0.71-0.07-0.41 0-0.75-0.34-0.75-0.75s0.34-0.75 0.75-0.75c2.08 0 2.25 1.02 2.25 2.25v2c0 1.23-0.17 2.25-2.25 2.25z"/>
 <path d="m10 16.75c-0.17 0-0.35-0.06-0.49-0.18-0.31-0.27-0.35-0.74-0.08-1.06l2.08-2.43c0.03-0.09 0-0.17-0.02-0.21-0.03-0.05-0.09-0.12-0.22-0.12h-2.3c-0.63 0-1.2-0.33-1.52-0.87s-0.32-1.2 0-1.75l1.95-2.58c0.25-0.33 0.72004-0.4 1.05-0.15s0.4 0.72 0.15 1.05l-1.89 2.5c-0.01 0.03 0.03 0.12 0.05 0.17 0.03 0.05 0.09 0.12 0.22 0.12h2.3c0.63 0 1.2 0.33 1.52 0.87s0.32 1.2 0 1.75c-0.02 0.04-0.05 0.08-0.08 0.11l-2.14 2.5c-0.16 0.19-0.37 0.28-0.58004 0.28z"/>
 <path d="m7 19.75c-4.41 0-5.75-1.34-5.75-5.75v-4c0-4.41 1.34-5.75 5.75-5.75 0.41 0 0.75 0.34 0.75 0.75s-0.34 0.75-0.75 0.75c-3.57 0-4.25 0.68-4.25 4.25v4c0 3.57 0.68 4.25 4.25 4.25 0.41 0 0.75 0.34 0.75 0.75s-0.34 0.75-0.75 0.75z"/>
 <path d="m13 19.75c-0.41 0-0.75-0.34-0.75-0.75s0.34-0.75 0.75-0.75c3.57 0 4.25-0.68 4.25-4.25v-4c0-3.57-0.68-4.25-4.25-4.25-0.41 0-0.75-0.34-0.75-0.75s0.34-0.75 0.75-0.75c4.41 0 5.75 1.34 5.75 5.75v4c0 4.41-1.34 5.75-5.75 5.75z"/>
</svg>
